X: 10302
M: 6/8
L: 1/8
K: Bb
|:\
v[B2D2]z v[B3-D3] | B>dc (.B2.F) | G>AG (.G2.f) | g>fe d>ec |\
v[B2D2]z v[B3-D3] | B>dc (.B2.F) | B>AG F>DF | B>cd (c2B) :|
|:\


